X:229
T:Which Side Are You On?
Z:Jack Campin, http://www.campin.me.uk/
F:Jack Campin's Nine-Note Tunebook
% last edit 03-02-2013
B:Topic Songbook
M:C
L:1/4
Q:1/4=100
K:CDor
  G|cccG|c2cc|dcBG|c2z
  c|dcBG|G2GG|GGFD|C3||
|:z|CCDF|G4  |GGFD|C3:|

